packages/kaspersky-hexa-ui-icons/src/iconsSVGs/24/PreventExecution.svg

<svg width="24" height="24" viewBox="0 0 24 24" fill="none" xmlns="http://www.w3.org/2000/svg">
<path fill-rule="evenodd" clip-rule="evenodd" d="M3.73614 6.88882L1.99626 5.14894C1.60574 4.75842 1.60574 4.12525 1.99626 3.73473C2.38679 3.3442 3.01995 3.3442 3.41048 3.73473L20.573 20.8973C20.9635 21.2878 20.9635 21.9209 20.573 22.3115C20.1825 22.702 19.5493 22.702 19.1588 22.3115L16.0153 19.1679C15.6184 19.4306 15.1951 19.657 14.7501 19.8422L14.4553 21.9863C14.3872 22.4813 13.9642 22.8501 13.4646 22.8501H10.2179C9.7181 22.8501 9.29505 22.4811 9.22717 21.9859L8.93337 19.8424C8.3251 19.5892 7.75732 19.2591 7.24208 18.8646L5.23785 19.6823C4.77507 19.8711 4.24396 19.6893 3.99405 19.2564L2.37071 16.4447C2.12089 16.012 2.22878 15.4613 2.62341 15.1549L4.33273 13.8275C4.29137 13.5071 4.27008 13.1807 4.27008 12.8498C4.27008 12.5194 4.29131 12.1935 4.33255 11.8735L2.62221 10.5466C2.2273 10.2403 2.11925 9.68936 2.36915 9.25652L3.73614 6.88882ZM14.5611 17.7138C14.2381 17.8949 13.8954 18.0446 13.5372 18.1589L12.9365 18.3506L12.5927 20.8501H11.0902L10.7476 18.3508L10.1465 18.159C9.37678 17.9135 8.67871 17.5047 8.09342 16.9721L7.62679 16.5476L5.28996 17.501L4.5387 16.1998L6.53031 14.6532L6.39676 14.0377C6.31391 13.6558 6.27008 13.2585 6.27008 12.8498C6.27008 12.4415 6.31385 12.0445 6.39658 11.6628L6.53008 11.0471L4.53734 9.5011L5.20024 8.35292L9.85229 13.005V14.9923C9.85229 15.2245 9.97618 15.4391 10.1773 15.5552C10.3784 15.6713 10.6262 15.6713 10.8273 15.5552L11.826 14.9786L14.5611 17.7138Z" fill="black"/>
<path d="M19.145 16.1999L18.9118 16.6038L20.3759 18.0679L21.313 16.4448C21.5628 16.0121 21.4549 15.4615 21.0603 15.155L19.3504 13.8272C19.3918 13.5069 19.413 13.1806 19.413 12.8498C19.413 12.5195 19.3918 12.1937 19.3506 11.8738L21.0616 10.5465C21.4565 10.2401 21.5645 9.68921 21.3146 9.25637L19.6913 6.44465C19.4415 6.01195 18.9106 5.83004 18.4479 6.01858L16.4421 6.83589C15.9267 6.44108 15.3586 6.1108 14.7501 5.85741L14.4553 3.71385C14.3872 3.21888 13.9642 2.8501 13.4646 2.8501H10.2179C9.7181 2.8501 9.29505 3.21912 9.22717 3.7143L8.93345 5.85725C8.75473 5.93165 8.5795 6.01268 8.40808 6.10003L9.92464 7.6166C9.9979 7.58975 10.0719 7.56441 10.1465 7.5406L10.7477 7.34886L11.0902 4.8501H12.5927L12.9364 7.34909L13.5372 7.54078C14.3069 7.78638 15.005 8.1954 15.5903 8.72809L16.0567 9.15258L18.3952 8.19973L19.1464 9.50094L17.1531 11.0474L17.2866 11.6631C17.3693 12.0446 17.413 12.4416 17.413 12.8498C17.413 13.2584 17.3692 13.6556 17.2864 14.0374L17.1529 14.653L19.145 16.1999Z" fill="black"/>
</svg>

<svg xmlns="http://www.w3.org/2000/svg" width="24" height="24" fill="none" viewBox="0 0 24 24"><path fill="#000" fill-rule="evenodd" d="M3.7361 6.8888 1.9963 5.149c-.3906-.3905-.3906-1.0236 0-1.4142s1.0237-.3905 1.4142 0L20.573 20.8973c.3905.3905.3905 1.0236 0 1.4142s-1.0237.3905-1.4142 0l-3.1435-3.1436a7.55 7.55 0 0 1-1.2652.6743l-.2948 2.1441a1 1 0 0 1-.9907.8638h-3.2467a1 1 0 0 1-.9907-.8642l-.2938-2.1435a7.56 7.56 0 0 1-1.6913-.9778l-2.0042.8177a1 1 0 0 1-1.2438-.4259l-1.6234-2.8117a1 1 0 0 1 .2527-1.2898l1.7093-1.3274a7.6 7.6 0 0 1-.0626-.9777c0-.3304.0212-.6563.0625-.9763l-1.7104-1.3269a1 1 0 0 1-.253-1.29zm10.825 10.825a5.53 5.53 0 0 1-1.0239.4451l-.6007.1917-.3438 2.4995h-1.5025l-.3426-2.4993-.6011-.1918a5.56 5.56 0 0 1-2.053-1.1869l-.4667-.4245-2.3368.9534-.7513-1.3012 1.9916-1.5466-.1335-.6155a5.6 5.6 0 0 1-.1267-1.1879c0-.4083.0438-.8053.1265-1.187l.1335-.6157-1.9928-1.546.663-1.1482 4.652 4.6521v1.9873a.65.65 0 0 0 .975.5629l.9987-.5766z" clip-rule="evenodd"/><path fill="#000" d="m19.145 16.1999-.2332.4039 1.4641 1.4641.9371-1.6231a1 1 0 0 0-.2527-1.2898l-1.7099-1.3278a7.6 7.6 0 0 0 .0626-.9774c0-.3303-.0212-.6561-.0624-.976l1.711-1.3273a1 1 0 0 0 .253-1.2901l-1.6233-2.8117a1 1 0 0 0-1.2434-.4261l-2.0058.8173a7.57 7.57 0 0 0-1.692-.9785l-.2948-2.1436a1 1 0 0 0-.9907-.8637h-3.2467a1 1 0 0 0-.9907.8642l-.2937 2.143A7.5 7.5 0 0 0 8.408 6.1l1.5165 1.5166a6 6 0 0 1 .2219-.076l.6012-.1917.3425-2.4988h1.5025l.3437 2.499.6008.1917a5.565 5.565 0 0 1 2.0531 1.1873l.4664.4245 2.3385-.9529.7512 1.3012-1.9933 1.5465.1335.6157c.0827.3815.1264.7785.1264 1.1867 0 .4086-.0438.8058-.1266 1.1876l-.1335.6156z"/></svg>
